X: 6
T: The Belharbour
R: reel
M: 4/4
L: 1/8
K: Gmaj
GD|:GA (3AGF G2Bd|(3gag fg dGBd|eGBd BAGB|(3ABA (3GFE D2EF|GA (3AGF G2Bd|(3gag fg dGBd|eGBd BAGD|1 G2GB G2GD:|2 GA (3AGF G2Bc|||:dGBd eGBd|g2bg eGBd|cecA ~B3G|(3ABA (3GFE D2Bc|dGBd eGBd|g2bg eGBG|DGBd BAGD|1 GB (3AGF G2Bc:|2 G2GB G2||


Tune 622	Setting 25744

